X: 100189
M: C|
L: 1/8
K: D
uF |\
fddA FDD=f | e=ccG ECCg | fddA FAdB | =cBcG ECC |]
[| uf |\
d2(da) fdad | Adda (e=c)ge | d2(da) fdad | AB=cG ECCg |\
fdAd FDD=f | e=cGc ECCg | fdcd AdFd | E=cGc ECC "^D.C."|]


